X:1
T:Not Try, but Trust
T:Not Try, but Trust
T:George C. Stebbins
T:Edward G. Taylor, 1891
T:Public Domain Courtesy of the Cyber Hymnal™
T:Public Domain Courtesy of the Cyber Hymnal™
C:George C. Stebbins
Z:Public Domain
Z:Courtesy of the Cyber Hymnal™
%%score ( 1 2 ) ( 3 4 )
L:1/8
Q:1/4=85
M:2/4
K:Ab
V:1 treble 
V:2 treble 
V:3 bass 
V:4 bass 
V:1
 [CA] | [Ec][Ec] [Fd][Ec] | [Ec] [EB]2 [EA] | [DA][DG] [DF][DG] | [CA]3 [CA][EB][EB][EA][EB] | %5
w: 1.~Not|saved are we by|try- ing, From|self can come no|aid; ’Tis on the blood re-|
w: 2.~’Twas|vain for Is- rael|bit- ten By|ser- pents on their|way, To look to their own|
w: 3.~No|deeds of ours are|need- ed To|make Christ’s mer- it|more; No frames of mind, or|
 [Ec] [CA]2 [EA] | [EG][EB] [=DA][DF] | E3 E | [EB][Ed] [Ec][EB] | [Ec] [CA]2 [EB] | %10
w: ly- ing, Once|for our ran- som|paid; ’Tis|look- ing un- to|Je- sus, The|
w: do- ing, That|aw- ful plague to|stay; The|on- ly way for|heal- ing, When|
w: feel- ings, Can|add to His great|store; ’Tis|sim- ply to re-|ceive Him, The|
 [Ec][Ee] [Ed][Ec] | [EB]3 (c/d/) | [Ae][Ac] [_GB][GA] | [FA] [Fd]2 [DF] | [CE][Ec] [Ec]>[DB] | %15
w: ho- ly One and|Just; ’Tis *|His great work that|saves us, It|is not Try, but|
w: hum- bled in the|dust, Was *|of the Lord’s re-|veal- ing, It|was not Try, but|
w: ho- ly One and|Just, ’Tis *|on- ly to be-|lieve Him, It|was not Try, but|
 [CA]3 ||"^Refrain" [CA] | [DF][Fd] [Fd]>[Fd] | [Fd]3 [DF] | [CE][Ec] [Ec]>[Ec] | [Ec]3 (c/d/) | %21
w: Trust.||||||
w: Trust.|It|is not Try, but|Trust; It|is not Try, but|Trust; ’Tis *|
w: Trust.||||||
 [Ae][Ac] [_GB][GA] | [FA] [Fd]2 [DF] | [CE][Ec] [Ec]>[DB] | [CA]3 |] %25
w: ||||
w: His great work that|saves us; It|is not Try, but|Trust.|
w: ||||
V:2
 x | x4 | x4 | x4 | x8 | x4 | x4 | E3 E | x4 | x4 | x4 | x3 E | x4 | x4 | x4 | x3 || x | x4 | x4 | %19
 x4 | x3 E | x4 | x4 | x4 | x3 |] %25
V:3
 [A,,E,] | [A,,A,][A,,A,] [A,,A,][A,,A,] | [E,A,] [E,G,]2 [E,C] | [E,B,][E,B,] [E,B,][E,B,] | %4
 [A,,A,]3 [A,,A,][E,G,][E,G,][E,F,][E,G,] | [A,,A,] [A,,A,]2 [A,,C] | %6
 [B,,B,][B,,G,] [B,,F,][B,,A,] | [E,G,]3 [E,G,] | ([E,G,]/[E,G,]/)[E,B,] [E,A,][E,G,] | %9
 [A,,A,] [A,,A,]2 [E,G,] | A,[A,C] [G,B,]A, | [E,G,]3 (A,/B,/) | [A,C][A,E] [A,D][A,C] | %13
 [D,D] [D,A,]2 [D,A,] | [E,A,][E,A,] [E,A,]>[E,G,] | [A,,A,]3 || [A,,A,] | %17
 [D,A,][D,A,] [D,A,]>[D,A,] | [D,A,]3 [D,A,] | [A,,A,][A,,A,] [A,,A,]>[A,,A,] | [A,,A,]3 (A,/B,/) | %21
 [A,C][A,E] [A,D][A,C] | [D,D] [D,A,]2 A, | [E,A,][E,A,] [E,A,]>[E,A,] | [A,,A,]3 |] %25
V:4
 x | x4 | x4 | x4 | x8 | x4 | x4 | x4 | x4 | x4 | A, x A, x | x3 A, | x4 | x4 | x4 | x3 || x | x4 | %18
 x4 | x4 | x3 A, | x4 | x4 | x4 | x3 |] %25

